X:1
T:Nutting Girl, The
O:Stanton Harcourt
M:4/4
L:1/4
Q:1/4=160
P:A(AB)4A
K:G
P:A
D|\
GGBd|cBAG/F/|GGBd|d3c/B/ |
ccAc|BBGA/B/|cAFA|G2G   |]
P:B
d|\
efgf|edBd   |efge|fgfd   |
efgf|edcB   |ABce|d2cB/A/|
GGBd|cBAG/F/|GGBd|d3c/B/ |
ccAc|BBGA/B/|cAFA|G2G   |]
